Newaita-dark/apps/64/com.github.danrabbit.harvey.svg

<svg height="64pt" viewBox="0 0 64 64" width="64pt" xmlns="http://www.w3.org/2000/svg" xmlns:xlink="http://www.w3.org/1999/xlink"><linearGradient id="a" gradientUnits="userSpaceOnUse" x1="31.75304" x2="31.75304" y1="56.067872" y2="58.71396000006"><stop offset="0" stop-opacity=".27451"/><stop offset="1" stop-opacity="0"/></linearGradient><linearGradient id="b"><stop offset="0" stop-opacity=".313726"/><stop offset=".222222" stop-opacity=".27451"/><stop offset="1" stop-opacity="0"/></linearGradient><radialGradient id="c" cx="450.908936" cy="189.579361" gradientTransform="matrix(.00000035 -.156265 -.281277 -.0000002 106.24586 127.190665)" gradientUnits="userSpaceOnUse" r="21.166656" xlink:href="#b"/><radialGradient id="d" cx="450.908936" cy="189.579361" gradientTransform="matrix(-.00000035 .156265 .281277 .0000002 -42.409041 -15.054958)" gradientUnits="userSpaceOnUse" r="21.166656" xlink:href="#b"/><radialGradient id="e" cx="450.908936" cy="189.579361" gradientTransform="matrix(-.00000035 -.156265 .281277 -.0000002 -42.409041 127.190665)" gradientUnits="userSpaceOnUse" r="21.166656" xlink:href="#b"/><radialGradient id="f" cx="450.908936" cy="189.579361" gradientTransform="matrix(.00000035 .156265 -.281277 .0000002 106.245857 -15.054959)" gradientUnits="userSpaceOnUse" r="21.166656" xlink:href="#b"/><linearGradient id="g"><stop offset="0" stop-color="#bdbdbd"/><stop offset="1" stop-color="#e0e0e0"/></linearGradient><linearGradient id="h" gradientUnits="userSpaceOnUse" x1="31.753048" x2="31.753048" xlink:href="#g" y1="56.067868" y2="5.79220799994"/><linearGradient id="i" gradientUnits="userSpaceOnUse" x1="31.753048" x2="31.753048" y1="56.067868" y2="5.79220799994"><stop offset="0" stop-color="#80deea"/><stop offset="1" stop-color="#b2ebf2"/></linearGradient><linearGradient id="j" gradientUnits="userSpaceOnUse" x1="41.01435500013" x2="41.01435500013" y1="21.66873249998" y2="40.191344"><stop offset="0" stop-color="#424242"/><stop offset="1" stop-color="#616161"/></linearGradient><linearGradient id="k" gradientUnits="userSpaceOnUse" x1="41.01435500013" x2="41.01435500013" xlink:href="#g" y1="35.56069150003" y2="26.2993855"/><path d="m10.253906 56.066406h43.328125v2.648438h-43.328125zm0 0" fill="url(#a)"/><path d="m53.582031 56.066406h5.292969v-2.644531h-5.292969zm0 0" fill="url(#c)"/><path d="m10.253906 56.066406h-5.292968v2.648438h5.292968zm0 0" fill="url(#d)"/><path d="m10.253906 56.066406h-5.292968v-2.644531h5.292968zm0 0" fill="url(#e)"/><path d="m53.582031 56.066406h5.292969v2.648438h-5.292969zm0 0" fill="url(#f)"/><path d="m7.277344 5.792969h48.953125c1.09375 0 1.984375.886719 1.984375 1.984375v46.304687c0 1.097657-.890625 1.984375-1.984375 1.984375h-48.953125c-1.097656 0-1.984375-.886718-1.984375-1.984375v-46.304687c0-1.097656.886719-1.984375 1.984375-1.984375zm0 0" fill="url(#h)"/><path d="m22.492188 5.792969v50.273437h33.738281c1.097656 0 1.984375-.882812 1.984375-1.984375v-46.304687c0-1.101563-.886719-1.984375-1.984375-1.984375zm0 0" fill="url(#i)"/><path d="m23.304688 56.066406v-50.273437h-.648438v50.273437zm0 0" fill-opacity=".196078"/><path d="m22.65625 56.066406v-50.273437h-.667969v50.273437zm0 0" fill="#fff" fill-opacity=".967742"/><path d="m22.824219 56.066406v-50.273437h-.332031v50.273437zm0 0" fill="#212121" fill-opacity=".992157"/><path d="m5.292969 53.257812v.660157c0 1.097656.882812 1.984375 1.984375 1.984375h48.953125c1.097656 0 1.984375-.886719 1.984375-1.984375v-.660157c0 1.097657-.886719 1.984376-1.984375 1.984376h-48.953125c-1.101563 0-1.984375-.886719-1.984375-1.984376zm0 0" fill-opacity=".235294"/><path d="m7.277344 5.964844c-1.101563 0-1.984375.882812-1.984375 1.984375v.660156c0-1.101563.882812-1.984375 1.984375-1.984375h48.953125c1.097656 0 1.984375.882812 1.984375 1.984375v-.660156c0-1.101563-.886719-1.984375-1.984375-1.984375zm0 0" fill="#fff" fill-opacity=".392157"/><path d="m7.277344 5.605469c-1.199219 0-2.171875.972656-2.171875 2.171875v46.304687c0 1.203125.972656 2.171875 2.171875 2.171875h48.953125c1.199219 0 2.171875-.96875 2.171875-2.171875v-46.304687c0-1.199219-.972656-2.171875-2.171875-2.171875zm0 .375h48.953125c.996093 0 1.796875.796875 1.796875 1.796875v46.304687c0 1-.800782 1.796875-1.796875 1.796875h-48.953125c-1 0-1.796875-.796875-1.796875-1.796875v-46.304687c0-1 .796875-1.796875 1.796875-1.796875zm0 0" fill="#212121"/><path d="m41.015625 21.667969c5.113281 0 9.261719 4.148437 9.261719 9.261719 0 5.113281-4.148438 9.261718-9.261719 9.261718-5.117187 0-9.261719-4.148437-9.261719-9.261718 0-5.113282 4.144532-9.261719 9.261719-9.261719zm0 0" fill="url(#j)"/><path d="m41.015625 21.667969c-5.132813 0-9.261719 4.132812-9.261719 9.261719 0 .167968.003906.332031.011719.496093.257813-4.898437 4.285156-8.765625 9.25-8.765625s8.992187 3.867188 9.246094 8.765625c.007812-.164062.015625-.328125.015625-.496093 0-5.128907-4.132813-9.261719-9.261719-9.261719zm0 0" fill-opacity=".235294"/><path d="m41.015625 41.183594c-5.132813 0-9.261719-4.128906-9.261719-9.261719 0-.167969.003906-.332031.011719-.496094.257813 4.898438 4.285156 8.765625 9.25 8.765625s8.992187-3.867187 9.246094-8.765625c.007812.164063.015625.328125.015625.496094 0 5.132813-4.132813 9.261719-9.261719 9.261719zm0 0" fill="#fff" fill-opacity=".392157"/><path d="m328.093669-41.672802c40.902344 0 74.086675 33.184331 74.086675 74.086675s-33.184331 74.086675-74.086675 74.086675c-40.933591 0-74.086675-33.184331-74.086675-74.086675 0-40.902344 33.153084-74.086675 74.086675-74.086675zm0 0" fill="none" stroke="#212121" stroke-linejoin="round" stroke-width="3" transform="matrix(.125012 0 0 .125012 0 26.877566)"/><path d="m45.035156 26.894531c-.453125-.015625-.886718.199219-1.152344.5625l-3.101562 4.136719-2.855469-2.382812c-.378906-.320313-.898437-.414063-1.363281-.242188-.464844.167969-.800781.574219-.882812 1.0625-.082032.488281.101562.980469.484374 1.292969l3.96875 3.308593c.289063.242188.667969.351563 1.039063.308594.375-.042968.714844-.238281.941406-.539062l3.96875-5.292969c.316407-.410156.378907-.960937.15625-1.429687-.222656-.46875-.6875-.769532-1.203125-.785157zm0 0" fill="url(#k)"/><path d="m45.035156 26.894531c-.453125-.015625-.886718.199219-1.152344.5625l-3.101562 4.136719-2.855469-2.382812c-.460937-.386719-1.117187-.433594-1.628906-.109376-.507813.324219-.746094.9375-.585937 1.519532.125-.453125.472656-.808594.921874-.945313.445313-.140625.933594-.039062 1.292969.265625l2.855469 2.378906 3.101562-4.132812c.265626-.367188.699219-.578125 1.152344-.566406.601563.019531 1.125.429687 1.285156 1.011718.113282-.40625.03125-.84375-.21875-1.183593-.253906-.335938-.644531-.542969-1.066406-.554688zm0 0" fill="#fff"/><path d="m46.277344 28.765625c-.046875.121094-.113282.238281-.195313.34375l-3.96875 5.292969c-.226562.300781-.566406.496094-.941406.539062-.371094.042969-.75-.066406-1.039063-.308594l-3.96875-3.308593c-.183593-.152344-.324218-.347657-.410156-.570313-.214844.554688-.050781 1.183594.410156 1.5625l3.96875 3.308594c.289063.238281.667969.351562 1.039063.308594.375-.042969.714844-.238282.941406-.542969l3.96875-5.289063c.292969-.382812.367188-.890624.195313-1.335937zm0 0" fill-opacity=".235294"/><path d="m360.246848.135706c-3.624654-.1249885-7.093073 1.593597-9.21787 4.49957l-24.81013 33.09059-22.841569-19.06068c-3.030961-2.562255-7.186814-3.312184-10.905209-1.937315-3.718395 1.343622-6.405638 4.593311-7.061825 8.499188-.656188 3.905877.812422 7.843001 3.87463 10.342763l31.746968 26.466222c2.312279 1.937315 5.34324 2.812232 8.311706 2.468515 2.999714-.343718 5.718204-1.906068 7.530531-4.312089l31.746968-42.339706c2.531009-3.280937 3.030961-7.686766 1.249881-11.436408s-5.499475-6.155662-9.624081-6.28065zm0 0" fill="none" stroke="#212121" stroke-linecap="round" stroke-linejoin="round" stroke-width="3" transform="matrix(.125012 0 0 .125012 0 26.877566)"/></svg>

<?xml version="1.0" encoding="UTF-8"?>
<svg xmlns="http://www.w3.org/2000/svg" xmlns:xlink="http://www.w3.org/1999/xlink" width="64pt" height="64pt" viewBox="0 0 64 64" version="1.1">
<defs>
<linearGradient id="linear0" gradientUnits="userSpaceOnUse" x1="254" y1="233.5" x2="254" y2="254.666672" gradientTransform="matrix(0.125012,0,0,0.125012,-0.00000763012,26.87757)">
<stop offset="0" style="stop-color:rgb(0%,0%,0%);stop-opacity:0.27451;"/>
<stop offset="1" style="stop-color:rgb(0%,0%,0%);stop-opacity:0;"/>
</linearGradient>
<radialGradient id="radial0" gradientUnits="userSpaceOnUse" cx="450.908936" cy="189.579361" fx="450.908936" fy="189.579361" r="21.166656" gradientTransform="matrix(0.000000348341,-0.156265,-0.281277,-0.000000203077,106.24586,127.190665)">
<stop offset="0" style="stop-color:rgb(0%,0%,0%);stop-opacity:0.313726;"/>
<stop offset="0.222222" style="stop-color:rgb(0%,0%,0%);stop-opacity:0.27451;"/>
<stop offset="1" style="stop-color:rgb(0%,0%,0%);stop-opacity:0;"/>
</radialGradient>
<radialGradient id="radial1" gradientUnits="userSpaceOnUse" cx="450.908936" cy="189.579361" fx="450.908936" fy="189.579361" r="21.166656" gradientTransform="matrix(-0.000000348341,0.156265,0.281277,0.000000203077,-42.409041,-15.054958)">
<stop offset="0" style="stop-color:rgb(0%,0%,0%);stop-opacity:0.313726;"/>
<stop offset="0.222222" style="stop-color:rgb(0%,0%,0%);stop-opacity:0.27451;"/>
<stop offset="1" style="stop-color:rgb(0%,0%,0%);stop-opacity:0;"/>
</radialGradient>
<radialGradient id="radial2" gradientUnits="userSpaceOnUse" cx="450.908936" cy="189.579361" fx="450.908936" fy="189.579361" r="21.166656" gradientTransform="matrix(-0.000000348341,-0.156265,0.281277,-0.000000203077,-42.409041,127.190665)">
<stop offset="0" style="stop-color:rgb(0%,0%,0%);stop-opacity:0.313726;"/>
<stop offset="0.222222" style="stop-color:rgb(0%,0%,0%);stop-opacity:0.27451;"/>
<stop offset="1" style="stop-color:rgb(0%,0%,0%);stop-opacity:0;"/>
</radialGradient>
<radialGradient id="radial3" gradientUnits="userSpaceOnUse" cx="450.908936" cy="189.579361" fx="450.908936" fy="189.579361" r="21.166656" gradientTransform="matrix(0.000000348341,0.156265,-0.281277,0.000000203077,106.245857,-15.054959)">
<stop offset="0" style="stop-color:rgb(0%,0%,0%);stop-opacity:0.313726;"/>
<stop offset="0.222222" style="stop-color:rgb(0%,0%,0%);stop-opacity:0.27451;"/>
<stop offset="1" style="stop-color:rgb(0%,0%,0%);stop-opacity:0;"/>
</radialGradient>
<linearGradient id="linear1" gradientUnits="userSpaceOnUse" x1="254" y1="233.5" x2="254" y2="-168.666672" gradientTransform="matrix(0.125012,0,0,0.125012,0,26.877566)">
<stop offset="0" style="stop-color:rgb(74.117649%,74.117649%,74.117649%);stop-opacity:1;"/>
<stop offset="1" style="stop-color:rgb(87.843138%,87.843138%,87.843138%);stop-opacity:1;"/>
</linearGradient>
<linearGradient id="linear2" gradientUnits="userSpaceOnUse" x1="254" y1="233.5" x2="254" y2="-168.666672" gradientTransform="matrix(0.125012,0,0,0.125012,0,26.877566)">
<stop offset="0" style="stop-color:rgb(50.196081%,87.058824%,91.764706%);stop-opacity:1;"/>
<stop offset="1" style="stop-color:rgb(69.803923%,92.156863%,94.901961%);stop-opacity:1;"/>
</linearGradient>
<linearGradient id="linear3" gradientUnits="userSpaceOnUse" x1="328.083344" y1="-41.666668" x2="328.083344" y2="106.5" gradientTransform="matrix(0.125012,0,0,0.125012,0,26.877566)">
<stop offset="0" style="stop-color:rgb(25.882354%,25.882354%,25.882354%);stop-opacity:1;"/>
<stop offset="1" style="stop-color:rgb(38.039216%,38.039216%,38.039216%);stop-opacity:1;"/>
</linearGradient>
<linearGradient id="linear4" gradientUnits="userSpaceOnUse" x1="328.083344" y1="69.458336" x2="328.083344" y2="-4.625" gradientTransform="matrix(0.125012,0,0,0.125012,0,26.877566)">
<stop offset="0" style="stop-color:rgb(74.117649%,74.117649%,74.117649%);stop-opacity:1;"/>
<stop offset="1" style="stop-color:rgb(87.843138%,87.843138%,87.843138%);stop-opacity:1;"/>
</linearGradient>
</defs>
<g id="surface1">
<path style=" stroke:none;fill-rule:nonzero;fill:url(#linear0);" d="M 10.253906 56.066406 L 53.582031 56.066406 L 53.582031 58.714844 L 10.253906 58.714844 Z M 10.253906 56.066406 "/>
<path style=" stroke:none;fill-rule:nonzero;fill:url(#radial0);" d="M 53.582031 56.066406 L 58.875 56.066406 L 58.875 53.421875 L 53.582031 53.421875 Z M 53.582031 56.066406 "/>
<path style=" stroke:none;fill-rule:nonzero;fill:url(#radial1);" d="M 10.253906 56.066406 L 4.960938 56.066406 L 4.960938 58.714844 L 10.253906 58.714844 Z M 10.253906 56.066406 "/>
<path style=" stroke:none;fill-rule:nonzero;fill:url(#radial2);" d="M 10.253906 56.066406 L 4.960938 56.066406 L 4.960938 53.421875 L 10.253906 53.421875 Z M 10.253906 56.066406 "/>
<path style=" stroke:none;fill-rule:nonzero;fill:url(#radial3);" d="M 53.582031 56.066406 L 58.875 56.066406 L 58.875 58.714844 L 53.582031 58.714844 Z M 53.582031 56.066406 "/>
<path style=" stroke:none;fill-rule:nonzero;fill:url(#linear1);" d="M 7.277344 5.792969 L 56.230469 5.792969 C 57.324219 5.792969 58.214844 6.679688 58.214844 7.777344 L 58.214844 54.082031 C 58.214844 55.179688 57.324219 56.066406 56.230469 56.066406 L 7.277344 56.066406 C 6.179688 56.066406 5.292969 55.179688 5.292969 54.082031 L 5.292969 7.777344 C 5.292969 6.679688 6.179688 5.792969 7.277344 5.792969 Z M 7.277344 5.792969 "/>
<path style=" stroke:none;fill-rule:nonzero;fill:url(#linear2);" d="M 22.492188 5.792969 L 22.492188 56.066406 L 56.230469 56.066406 C 57.328125 56.066406 58.214844 55.183594 58.214844 54.082031 L 58.214844 7.777344 C 58.214844 6.675781 57.328125 5.792969 56.230469 5.792969 Z M 22.492188 5.792969 "/>
<path style=" stroke:none;fill-rule:nonzero;fill:rgb(0%,0%,0%);fill-opacity:0.196078;" d="M 23.304688 56.066406 L 23.304688 5.792969 L 22.65625 5.792969 L 22.65625 56.066406 Z M 23.304688 56.066406 "/>
<path style=" stroke:none;fill-rule:nonzero;fill:rgb(100%,100%,100%);fill-opacity:0.967742;" d="M 22.65625 56.066406 L 22.65625 5.792969 L 21.988281 5.792969 L 21.988281 56.066406 Z M 22.65625 56.066406 "/>
<path style=" stroke:none;fill-rule:nonzero;fill:rgb(12.941177%,12.941177%,12.941177%);fill-opacity:0.992157;" d="M 22.824219 56.066406 L 22.824219 5.792969 L 22.492188 5.792969 L 22.492188 56.066406 Z M 22.824219 56.066406 "/>
<path style=" stroke:none;fill-rule:nonzero;fill:rgb(0%,0%,0%);fill-opacity:0.235294;" d="M 5.292969 53.257812 L 5.292969 53.917969 C 5.292969 55.015625 6.175781 55.902344 7.277344 55.902344 L 56.230469 55.902344 C 57.328125 55.902344 58.214844 55.015625 58.214844 53.917969 L 58.214844 53.257812 C 58.214844 54.355469 57.328125 55.242188 56.230469 55.242188 L 7.277344 55.242188 C 6.175781 55.242188 5.292969 54.355469 5.292969 53.257812 Z M 5.292969 53.257812 "/>
<path style=" stroke:none;fill-rule:nonzero;fill:rgb(100%,100%,100%);fill-opacity:0.392157;" d="M 7.277344 5.964844 C 6.175781 5.964844 5.292969 6.847656 5.292969 7.949219 L 5.292969 8.609375 C 5.292969 7.507812 6.175781 6.625 7.277344 6.625 L 56.230469 6.625 C 57.328125 6.625 58.214844 7.507812 58.214844 8.609375 L 58.214844 7.949219 C 58.214844 6.847656 57.328125 5.964844 56.230469 5.964844 Z M 7.277344 5.964844 "/>
<path style=" stroke:none;fill-rule:nonzero;fill:rgb(12.941177%,12.941177%,12.941177%);fill-opacity:1;" d="M 7.277344 5.605469 C 6.078125 5.605469 5.105469 6.578125 5.105469 7.777344 L 5.105469 54.082031 C 5.105469 55.285156 6.078125 56.253906 7.277344 56.253906 L 56.230469 56.253906 C 57.429688 56.253906 58.402344 55.285156 58.402344 54.082031 L 58.402344 7.777344 C 58.402344 6.578125 57.429688 5.605469 56.230469 5.605469 Z M 7.277344 5.980469 L 56.230469 5.980469 C 57.226562 5.980469 58.027344 6.777344 58.027344 7.777344 L 58.027344 54.082031 C 58.027344 55.082031 57.226562 55.878906 56.230469 55.878906 L 7.277344 55.878906 C 6.277344 55.878906 5.480469 55.082031 5.480469 54.082031 L 5.480469 7.777344 C 5.480469 6.777344 6.277344 5.980469 7.277344 5.980469 Z M 7.277344 5.980469 "/>
<path style=" stroke:none;fill-rule:nonzero;fill:url(#linear3);" d="M 41.015625 21.667969 C 46.128906 21.667969 50.277344 25.816406 50.277344 30.929688 C 50.277344 36.042969 46.128906 40.191406 41.015625 40.191406 C 35.898438 40.191406 31.753906 36.042969 31.753906 30.929688 C 31.753906 25.816406 35.898438 21.667969 41.015625 21.667969 Z M 41.015625 21.667969 "/>
<path style=" stroke:none;fill-rule:nonzero;fill:rgb(0%,0%,0%);fill-opacity:0.235294;" d="M 41.015625 21.667969 C 35.882812 21.667969 31.753906 25.800781 31.753906 30.929688 C 31.753906 31.097656 31.757812 31.261719 31.765625 31.425781 C 32.023438 26.527344 36.050781 22.660156 41.015625 22.660156 C 45.980469 22.660156 50.007812 26.527344 50.261719 31.425781 C 50.269531 31.261719 50.277344 31.097656 50.277344 30.929688 C 50.277344 25.800781 46.144531 21.667969 41.015625 21.667969 Z M 41.015625 21.667969 "/>
<path style=" stroke:none;fill-rule:nonzero;fill:rgb(100%,100%,100%);fill-opacity:0.392157;" d="M 41.015625 41.183594 C 35.882812 41.183594 31.753906 37.054688 31.753906 31.921875 C 31.753906 31.753906 31.757812 31.589844 31.765625 31.425781 C 32.023438 36.324219 36.050781 40.191406 41.015625 40.191406 C 45.980469 40.191406 50.007812 36.324219 50.261719 31.425781 C 50.269531 31.589844 50.277344 31.753906 50.277344 31.921875 C 50.277344 37.054688 46.144531 41.183594 41.015625 41.183594 Z M 41.015625 41.183594 "/>
<path style="fill:none;stroke-width:3;stroke-linecap:butt;stroke-linejoin:round;stroke:rgb(12.941177%,12.941177%,12.941177%);stroke-opacity:1;stroke-miterlimit:4;" d="M 328.093669 -41.672802 C 368.996013 -41.672802 402.180344 -8.488471 402.180344 32.413873 C 402.180344 73.316217 368.996013 106.500548 328.093669 106.500548 C 287.160078 106.500548 254.006994 73.316217 254.006994 32.413873 C 254.006994 -8.488471 287.160078 -41.672802 328.093669 -41.672802 Z M 328.093669 -41.672802 " transform="matrix(0.125012,0,0,0.125012,0,26.877566)"/>
<path style=" stroke:none;fill-rule:nonzero;fill:url(#linear4);" d="M 45.035156 26.894531 C 44.582031 26.878906 44.148438 27.09375 43.882812 27.457031 L 40.78125 31.59375 L 37.925781 29.210938 C 37.546875 28.890625 37.027344 28.796875 36.5625 28.96875 C 36.097656 29.136719 35.761719 29.542969 35.679688 30.03125 C 35.597656 30.519531 35.78125 31.011719 36.164062 31.324219 L 40.132812 34.632812 C 40.421875 34.875 40.800781 34.984375 41.171875 34.941406 C 41.546875 34.898438 41.886719 34.703125 42.113281 34.402344 L 46.082031 29.109375 C 46.398438 28.699219 46.460938 28.148438 46.238281 27.679688 C 46.015625 27.210938 45.550781 26.910156 45.035156 26.894531 Z M 45.035156 26.894531 "/>
<path style=" stroke:none;fill-rule:nonzero;fill:rgb(100%,100%,100%);fill-opacity:1;" d="M 45.035156 26.894531 C 44.582031 26.878906 44.148438 27.09375 43.882812 27.457031 L 40.78125 31.59375 L 37.925781 29.210938 C 37.464844 28.824219 36.808594 28.777344 36.296875 29.101562 C 35.789062 29.425781 35.550781 30.039062 35.710938 30.621094 C 35.835938 30.167969 36.183594 29.8125 36.632812 29.675781 C 37.078125 29.535156 37.566406 29.636719 37.925781 29.941406 L 40.78125 32.320312 L 43.882812 28.1875 C 44.148438 27.820312 44.582031 27.609375 45.035156 27.621094 C 45.636719 27.640625 46.160156 28.050781 46.320312 28.632812 C 46.433594 28.226562 46.351562 27.789062 46.101562 27.449219 C 45.847656 27.113281 45.457031 26.90625 45.035156 26.894531 Z M 45.035156 26.894531 "/>
<path style=" stroke:none;fill-rule:nonzero;fill:rgb(0%,0%,0%);fill-opacity:0.235294;" d="M 46.277344 28.765625 C 46.230469 28.886719 46.164062 29.003906 46.082031 29.109375 L 42.113281 34.402344 C 41.886719 34.703125 41.546875 34.898438 41.171875 34.941406 C 40.800781 34.984375 40.421875 34.875 40.132812 34.632812 L 36.164062 31.324219 C 35.980469 31.171875 35.839844 30.976562 35.753906 30.753906 C 35.539062 31.308594 35.703125 31.9375 36.164062 32.316406 L 40.132812 35.625 C 40.421875 35.863281 40.800781 35.976562 41.171875 35.933594 C 41.546875 35.890625 41.886719 35.695312 42.113281 35.390625 L 46.082031 30.101562 C 46.375 29.71875 46.449219 29.210938 46.277344 28.765625 Z M 46.277344 28.765625 "/>
<path style="fill:none;stroke-width:3;stroke-linecap:round;stroke-linejoin:round;stroke:rgb(12.941177%,12.941177%,12.941177%);stroke-opacity:1;stroke-miterlimit:4;" d="M 360.246848 0.135706 C 356.622194 0.0107175 353.153775 1.729303 351.028978 4.635276 L 326.218848 37.725866 L 303.377279 18.665186 C 300.346318 16.102931 296.190465 15.353002 292.47207 16.727871 C 288.753675 18.071493 286.066432 21.321182 285.410245 25.227059 C 284.754057 29.132936 286.222667 33.07006 289.284875 35.569822 L 321.031843 62.036044 C 323.344122 63.973359 326.375083 64.848276 329.343549 64.504559 C 332.343263 64.160841 335.061753 62.598491 336.87408 60.19247 L 368.621048 17.852764 C 371.152057 14.571827 371.652009 10.165998 369.870929 6.416356 C 368.089849 2.666714 364.371454 0.260694 360.246848 0.135706 Z M 360.246848 0.135706 " transform="matrix(0.125012,0,0,0.125012,0,26.877566)"/>
</g>
</svg>
